svgs/duotone/sliders.svg

<svg xmlns="http://www.w3.org/2000/svg" viewBox="0 0 512 512"><!--! Font Awesome Pro 6.4.0 by @fontawesome - https://fontawesome.com License - https://fontawesome.com/license (Commercial License) Copyright 2023 Fonticons, Inc. --><defs><style>.fa-secondary{opacity:.4}</style></defs><path class="fa-primary" d="M128 416a32 32 0 1 1 64 0 32 32 0 1 1 -64 0zm112 0A80 80 0 1 0 80 416a80 80 0 1 0 160 0zm80-160a32 32 0 1 1 64 0 32 32 0 1 1 -64 0zm112 0a80 80 0 1 0 -160 0 80 80 0 1 0 160 0zM192 128a32 32 0 1 1 0-64 32 32 0 1 1 0 64zm0-112a80 80 0 1 0 0 160 80 80 0 1 0 0-160z"/><path class="fa-secondary" d="M0 416c0-17.7 14.3-32 32-32l54.7 0c-4.3 9.8-6.7 20.6-6.7 32s2.4 22.2 6.7 32L32 448c-17.7 0-32-14.3-32-32zm233.3 32c4.3-9.8 6.7-20.6 6.7-32s-2.4-22.2-6.7-32L480 384c17.7 0 32 14.3 32 32s-14.3 32-32 32l-246.7 0zM0 256c0-17.7 14.3-32 32-32l246.7 0c-4.3 9.8-6.7 20.6-6.7 32s2.4 22.2 6.7 32L32 288c-17.7 0-32-14.3-32-32zm425.3 32c4.3-9.8 6.7-20.6 6.7-32s-2.4-22.2-6.7-32l54.7 0c17.7 0 32 14.3 32 32s-14.3 32-32 32l-54.7 0zM32 64l86.7 0c-4.3 9.8-6.7 20.6-6.7 32s2.4 22.2 6.7 32L32 128C14.3 128 0 113.7 0 96S14.3 64 32 64zm233.3 64c4.3-9.8 6.7-20.6 6.7-32s-2.4-22.2-6.7-32L480 64c17.7 0 32 14.3 32 32s-14.3 32-32 32l-214.7 0z"/></svg>

<svg xmlns="http://www.w3.org/2000/svg" viewBox="0 0 512 512"><!--! Font Awesome Pro 6.3.0 by @fontawesome - https://fontawesome.com License - https://fontawesome.com/license (Commercial License) Copyright 2023 Fonticons, Inc. --><defs><style>.fa-secondary{opacity:.4}</style></defs><path class="fa-primary" d="M160 496C115.8 496 80 460.2 80 416C80 371.8 115.8 336 160 336C204.2 336 240 371.8 240 416C240 460.2 204.2 496 160 496zM192 416C192 398.3 177.7 384 160 384C142.3 384 128 398.3 128 416C128 433.7 142.3 448 160 448C177.7 448 192 433.7 192 416zM352 336C307.8 336 272 300.2 272 256C272 211.8 307.8 176 352 176C396.2 176 432 211.8 432 256C432 300.2 396.2 336 352 336zM384 256C384 238.3 369.7 224 352 224C334.3 224 320 238.3 320 256C320 273.7 334.3 288 352 288C369.7 288 384 273.7 384 256zM192 16C236.2 16 272 51.82 272 96C272 140.2 236.2 176 192 176C147.8 176 112 140.2 112 96C112 51.82 147.8 16 192 16zM160 96C160 113.7 174.3 128 192 128C209.7 128 224 113.7 224 96C224 78.33 209.7 64 192 64C174.3 64 160 78.33 160 96z"/><path class="fa-secondary" d="M0 416C0 398.3 14.33 384 32 384H86.66C82.38 393.8 80 404.6 80 416C80 427.4 82.38 438.2 86.66 448H32C14.33 448 0 433.7 0 416zM240 416C240 404.6 237.6 393.8 233.3 384H480C497.7 384 512 398.3 512 416C512 433.7 497.7 448 480 448H233.3C237.6 438.2 240 427.4 240 416V416zM0 256C0 238.3 14.33 224 32 224H278.7C274.4 233.8 272 244.6 272 256C272 267.4 274.4 278.2 278.7 288H32C14.33 288 0 273.7 0 256V256zM432 256C432 244.6 429.6 233.8 425.3 224H480C497.7 224 512 238.3 512 256C512 273.7 497.7 288 480 288H425.3C429.6 278.2 432 267.4 432 256zM118.7 64C114.4 73.8 112 84.62 112 96C112 107.4 114.4 118.2 118.7 128H32C14.33 128 0 113.7 0 96C0 78.33 14.33 64 32 64H118.7zM265.3 128C269.6 118.2 272 107.4 272 96C272 84.62 269.6 73.8 265.3 64H480C497.7 64 512 78.33 512 96C512 113.7 497.7 128 480 128H265.3z"/></svg>
